X: 186
T: The Victory
%R: reel
B: Chas & Sam Thompson "Twenty Four Country Dances for the Year 1780", London 1780, p.93 #2
F: http://www.vwml.org/browse/browse-collections-dance-tune-books/browse-thompsons1780
Z: 2014 John Chambers <jc:trillian.mit.edu> (added dance description)
M: C|
L: 1/8
K: G
% - - - - - - - - - - - - - - - - - - - - - - - - - - - - -
|:\
d2BG d2BG | efge dBAG |\
d2BG d2BG | edcB TB2A2 :|
|:\
DGFG EGFG | DFAc | BGFG |\
GBdg gedc | B2TA2 G4 :|
% - - - - - - - - - - Dance description - - - - - - - - - -
%%begintext align
%%   Cast off two Cu. and up again .|.
%% Cross over two Cu. and lead thro'
%% the top & cast off :|. Sett corners
%% turn .|: Lead outsides :|:
%%endtext

%%sep 1 1 500
%%sep 1 1 500
